ExtensionSource/app/images/alerts-icon.svg

<svg id="e0TSq9l1Pcj1" xmlns="http://www.w3.org/2000/svg" xmlns:xlink="http://www.w3.org/1999/xlink" viewBox="0 0 16 16" shape-rendering="geometricPrecision" text-rendering="geometricPrecision"><path d="M8,15.5714c.09524,0,.14286-.0476.14286-.1428s-.04762-.1429-.14286-.1429c-.35119,0-.65476-.128-.91071-.3839-.25-.25-.375-.5506-.375-.9018c0-.0952-.04762-.1429-.14286-.1429s-.14286.0477-.14286.1429c0,.4345.15179.8036.45536,1.1071.30952.3096.68155.4643,1.11607.4643Zm7.4286-2.7143c0,.3096-.1131.5774-.3393.8036s-.4941.3393-.8036.3393h-4c0,.631-.2232,1.1696-.66963,1.6161s-.98512.6696-1.61607.6696-1.16964-.2232-1.61607-.6696-.66964-.9851-.66964-1.6161h-4c-.30953,0-.57739-.1131-.803576-.3393s-.339285-.494-.339285-.8036c.297619-.25.568451-.5119.812501-.7857s.49702-.6279.75893-1.0625c.2619-.4404.48214-.9137.66071-1.41961C2.9881,9.08333,3.1369,8.47024,3.25,7.75c.11905-.72024.17857-1.49405.17857-2.32143c0-.90476.34822-1.74405,1.04464-2.51786.69643-.77976,1.61012-1.25297,2.74108-1.41964-.04762-.11309-.07143-.22917-.07143-.34821c0-.238098.08333-.440479.25-.607146s.36905-.250001.60714-.250001.44048.083334.60714.250001.25.369048.25.607146c0,.11904-.02381.23512-.07142.34821c1.13095.16667,2.04468.63988,2.74108,1.41964.6964.77381,1.0446,1.6131,1.0446,2.51786c0,.82738.0566,1.60119.1697,2.32143.119.72024.2678,1.33333.4464,1.83929.1845.50591.4077.97921.6696,1.41961.2619.4346.5149.7887.759,1.0625s.5149.5357.8125.7857Z" fill="#fff"/></svg>

<svg width="16" height="16" viewBox="0 0 16 16" fill="none" xmlns="http://www.w3.org/2000/svg">
<path d="M8 15.5714C8.09524 15.5714 8.14286 15.5238 8.14286 15.4286C8.14286 15.3333 8.09524 15.2857 8 15.2857C7.64881 15.2857 7.34524 15.1577 7.08929 14.9018C6.83929 14.6518 6.71429 14.3512 6.71429 14C6.71429 13.9048 6.66667 13.8571 6.57143 13.8571C6.47619 13.8571 6.42857 13.9048 6.42857 14C6.42857 14.4345 6.58036 14.8036 6.88393 15.1071C7.19345 15.4167 7.56548 15.5714 8 15.5714ZM15.4286 12.8571C15.4286 13.1667 15.3155 13.4345 15.0893 13.6607C14.8631 13.8869 14.5952 14 14.2857 14H10.2857C10.2857 14.631 10.0625 15.1696 9.61607 15.6161C9.16964 16.0625 8.63095 16.2857 8 16.2857C7.36905 16.2857 6.83036 16.0625 6.38393 15.6161C5.9375 15.1696 5.71429 14.631 5.71429 14H1.71429C1.40476 14 1.1369 13.8869 0.910714 13.6607C0.684524 13.4345 0.571429 13.1667 0.571429 12.8571C0.869048 12.6071 1.13988 12.3452 1.38393 12.0714C1.62798 11.7976 1.88095 11.4435 2.14286 11.0089C2.40476 10.5685 2.625 10.0952 2.80357 9.58929C2.9881 9.08333 3.1369 8.47024 3.25 7.75C3.36905 7.02976 3.42857 6.25595 3.42857 5.42857C3.42857 4.52381 3.77679 3.68452 4.47321 2.91071C5.16964 2.13095 6.08333 1.65774 7.21429 1.49107C7.16667 1.37798 7.14286 1.2619 7.14286 1.14286C7.14286 0.904762 7.22619 0.702381 7.39286 0.535714C7.55952 0.369047 7.76191 0.285713 8 0.285713C8.2381 0.285713 8.44048 0.369047 8.60714 0.535714C8.77381 0.702381 8.85714 0.904762 8.85714 1.14286C8.85714 1.2619 8.83333 1.37798 8.78572 1.49107C9.91667 1.65774 10.8304 2.13095 11.5268 2.91071C12.2232 3.68452 12.5714 4.52381 12.5714 5.42857C12.5714 6.25595 12.628 7.02976 12.7411 7.75C12.8601 8.47024 13.0089 9.08333 13.1875 9.58929C13.372 10.0952 13.5952 10.5685 13.8571 11.0089C14.119 11.4435 14.372 11.7976 14.6161 12.0714C14.8601 12.3452 15.131 12.6071 15.4286 12.8571Z" fill="#24292E"/>
</svg>
